svg/u1F1ED.svg

<svg viewBox="0 0 2600 2760.837" xmlns="http://www.w3.org/2000/svg"><path d="M2096 506q17 0 29 11.5t12 28.5v1754q0 17-12 28.5t-29 11.5h-431q-18 0-29.5-11.5t-11.5-28.5v-745h-650v745q0 17-11.5 28.5t-28.5 11.5h-433q-16 0-27.5-11.5t-11.5-28.5v-1754q0-17 11.5-28.5t27.5-11.5h433q17 0 28.5 11.5t11.5 28.5v637h650v-637q0-17 11.5-28.5t29.5-11.5h431z"/></svg>

<svg viewBox="0 0 2600 2760.837" xmlns="http://www.w3.org/2000/svg"><path d="M2096 506q17 0 29 11.5t12 28.5v1754q0 17-12 28.5t-29 11.5h-431q-18 0-29.5-11.5T1624 2300v-745H974v745q0 17-11.5 28.5T934 2340H501q-16 0-27.5-11.5T462 2300V546q0-17 11.5-28.5T501 506h433q17 0 28.5 11.5T974 546v637h650V546q0-17 11.5-28.5T1665 506h431z"/></svg>
